X:385
T:Kitty Got a Clinking
T:High Road to Linton, The
S:Craobh Rua
Z:Nigel Gatherer
M:4/4
L:1/8
K:D
FDFA d2 dA | BABc d2 d2 | FDFA d2 dA | (3Bcd AF E2 D2 :|
FAAd BGGB | AFFA BEEG | FAAd BGGB | AFDF E2 D2 |
FAAd BGGB | AFFA BEEG | FAAd BcdB | AFDF E2 D2 |]
